images/50420030.svg

<?xml version="1.0" encoding="UTF-8"?>
<svg xmlns="http://www.w3.org/2000/svg" xmlns:xlink="http://www.w3.org/1999/xlink" width="300pt" height="300pt" viewBox="0 0 300 300" version="1.1">
<defs>
<g>
<symbol overflow="visible" id="glyph0-0">
<path style="stroke:none;" d="M 0.546875 1.9375 L 0.546875 -7.75 L 6.046875 -7.75 L 6.046875 1.9375 Z M 1.171875 1.328125 L 5.4375 1.328125 L 5.4375 -7.140625 L 1.171875 -7.140625 Z M 1.171875 1.328125 "/>
</symbol>
<symbol overflow="visible" id="glyph0-1">
<path style="stroke:none;" d="M 1.078125 -8.015625 L 5.6875 -8.015625 L 5.6875 -7.109375 L 2.171875 -7.109375 L 2.171875 -4.75 L 5.34375 -4.75 L 5.34375 -3.828125 L 2.171875 -3.828125 L 2.171875 0 L 1.078125 0 Z M 1.078125 -8.015625 "/>
</symbol>
<symbol overflow="visible" id="glyph0-2">
<path style="stroke:none;" d="M 1.078125 -8.015625 L 2.546875 -8.015625 L 6.09375 -1.3125 L 6.09375 -8.015625 L 7.15625 -8.015625 L 7.15625 0 L 5.6875 0 L 2.125 -6.703125 L 2.125 0 L 1.078125 0 Z M 1.078125 -8.015625 "/>
</symbol>
<symbol overflow="visible" id="glyph0-3">
<path style="stroke:none;" d="M 1.078125 -8.015625 L 2.171875 -8.015625 L 2.171875 -4.734375 L 6.109375 -4.734375 L 6.109375 -8.015625 L 7.1875 -8.015625 L 7.1875 0 L 6.109375 0 L 6.109375 -3.8125 L 2.171875 -3.8125 L 2.171875 0 L 1.078125 0 Z M 1.078125 -8.015625 "/>
</symbol>
<symbol overflow="visible" id="glyph1-0">
<path style="stroke:none;" d="M 0.453125 1.59375 L 0.453125 -6.34375 L 4.953125 -6.34375 L 4.953125 1.59375 Z M 0.953125 1.09375 L 4.453125 1.09375 L 4.453125 -5.84375 L 0.953125 -5.84375 Z M 0.953125 1.09375 "/>
</symbol>
<symbol overflow="visible" id="glyph1-1">
<path style="stroke:none;" d="M 1.734375 -0.75 L 4.828125 -0.75 L 4.828125 0 L 0.65625 0 L 0.65625 -0.75 C 1 -1.09375 1.457031 -1.554688 2.03125 -2.140625 C 2.613281 -2.734375 2.984375 -3.113281 3.140625 -3.28125 C 3.421875 -3.601562 3.613281 -3.875 3.71875 -4.09375 C 3.832031 -4.320312 3.890625 -4.539062 3.890625 -4.75 C 3.890625 -5.101562 3.769531 -5.390625 3.53125 -5.609375 C 3.289062 -5.828125 2.972656 -5.9375 2.578125 -5.9375 C 2.296875 -5.9375 2 -5.882812 1.6875 -5.78125 C 1.382812 -5.6875 1.054688 -5.539062 0.703125 -5.34375 L 0.703125 -6.25 C 1.054688 -6.382812 1.390625 -6.488281 1.703125 -6.5625 C 2.015625 -6.644531 2.300781 -6.6875 2.5625 -6.6875 C 3.238281 -6.6875 3.78125 -6.515625 4.1875 -6.171875 C 4.59375 -5.828125 4.796875 -5.375 4.796875 -4.8125 C 4.796875 -4.539062 4.742188 -4.28125 4.640625 -4.03125 C 4.535156 -3.789062 4.351562 -3.507812 4.09375 -3.1875 C 4.019531 -3.101562 3.785156 -2.859375 3.390625 -2.453125 C 2.992188 -2.046875 2.441406 -1.476562 1.734375 -0.75 Z M 1.734375 -0.75 "/>
</symbol>
</g>
</defs>
<g id="surface27285">
<rect x="0" y="0" width="300" height="300" style="fill:rgb(100%,100%,100%);fill-opacity:1;stroke:none;"/>
<path style="fill:none;stroke-width:1.2;stroke-linecap:butt;stroke-linejoin:miter;stroke:rgb(20%,80%,80%);stroke-opacity:1;stroke-miterlimit:10;" d="M 229.058594 228.015625 L 221.054688 217.15625 "/>
<path style="fill:none;stroke-width:1.2;stroke-linecap:butt;stroke-linejoin:miter;stroke:rgb(0%,0%,0%);stroke-opacity:1;stroke-miterlimit:10;" d="M 221.054688 217.15625 L 213.054688 206.296875 "/>
<path style=" stroke:none;fill-rule:nonzero;fill:rgb(100%,100%,100%);fill-opacity:1;" d="M 226.058594 221.515625 L 233.058594 221.515625 L 233.058594 234.515625 L 226.058594 234.515625 Z M 226.058594 221.515625 "/>
<g style="fill:rgb(20%,80%,80%);fill-opacity:1;">
  <use xlink:href="#glyph0-1" x="226.058594" y="231.416992"/>
</g>
<path style="fill:none;stroke-width:1.2;stroke-linecap:butt;stroke-linejoin:miter;stroke:rgb(0%,0%,0%);stroke-opacity:1;stroke-miterlimit:10;" d="M 213.054688 206.296875 L 186.246094 209.296875 "/>
<path style="fill:none;stroke-width:1.2;stroke-linecap:butt;stroke-linejoin:miter;stroke:rgb(0%,0%,0%);stroke-opacity:1;stroke-miterlimit:10;" d="M 209.667969 200.289062 L 188.21875 202.6875 "/>
<path style="fill:none;stroke-width:1.2;stroke-linecap:butt;stroke-linejoin:miter;stroke:rgb(0%,0%,0%);stroke-opacity:1;stroke-miterlimit:10;" d="M 223.863281 181.578125 L 213.054688 206.296875 "/>
<path style="fill:none;stroke-width:1.2;stroke-linecap:butt;stroke-linejoin:miter;stroke:rgb(0%,0%,0%);stroke-opacity:1;stroke-miterlimit:10;" d="M 186.246094 209.296875 L 170.242188 187.578125 "/>
<path style="fill:none;stroke-width:1.2;stroke-linecap:butt;stroke-linejoin:miter;stroke:rgb(0%,0%,0%);stroke-opacity:1;stroke-miterlimit:10;" d="M 170.242188 187.578125 L 181.050781 162.859375 "/>
<path style="fill:none;stroke-width:1.2;stroke-linecap:butt;stroke-linejoin:miter;stroke:rgb(0%,0%,0%);stroke-opacity:1;stroke-miterlimit:10;" d="M 177.136719 187.648438 L 185.785156 167.871094 "/>
<path style="fill:none;stroke-width:1.2;stroke-linecap:butt;stroke-linejoin:miter;stroke:rgb(0%,0%,0%);stroke-opacity:1;stroke-miterlimit:10;" d="M 181.050781 162.859375 L 207.859375 159.859375 "/>
<path style="fill:none;stroke-width:1.2;stroke-linecap:butt;stroke-linejoin:miter;stroke:rgb(0%,0%,0%);stroke-opacity:1;stroke-miterlimit:10;" d="M 181.050781 162.859375 L 165.046875 141.140625 "/>
<path style="fill:none;stroke-width:1.2;stroke-linecap:butt;stroke-linejoin:miter;stroke:rgb(0%,0%,0%);stroke-opacity:1;stroke-miterlimit:10;" d="M 207.859375 159.859375 L 223.863281 181.578125 "/>
<path style="fill:none;stroke-width:1.2;stroke-linecap:butt;stroke-linejoin:miter;stroke:rgb(0%,0%,0%);stroke-opacity:1;stroke-miterlimit:10;" d="M 204.347656 165.796875 L 217.152344 183.171875 "/>
<path style="fill:none;stroke-width:1.2;stroke-linecap:butt;stroke-linejoin:miter;stroke:rgb(0%,0%,0%);stroke-opacity:1;stroke-miterlimit:10;" d="M 165.046875 141.140625 L 151.558594 141.230469 "/>
<path style="fill:none;stroke-width:1.2;stroke-linecap:butt;stroke-linejoin:miter;stroke:rgb(0%,0%,100%);stroke-opacity:1;stroke-miterlimit:10;" d="M 151.558594 141.230469 L 138.070312 141.320312 "/>
<path style="fill:none;stroke-width:1.2;stroke-linecap:butt;stroke-linejoin:miter;stroke:rgb(0%,0%,0%);stroke-opacity:1;stroke-miterlimit:10;" d="M 173.210938 115.425781 L 165.046875 141.140625 "/>
<path style="fill:none;stroke-width:1.2;stroke-linecap:butt;stroke-linejoin:miter;stroke:rgb(0%,0%,0%);stroke-opacity:1;stroke-miterlimit:10;" d="M 166.34375 116.078125 L 159.8125 136.648438 "/>
<path style="fill:none;stroke-width:1.2;stroke-linecap:butt;stroke-linejoin:miter;stroke:rgb(0%,0%,100%);stroke-opacity:1;stroke-miterlimit:10;" d="M 138.070312 141.320312 L 133.816406 128.519531 "/>
<path style="fill:none;stroke-width:1.2;stroke-linecap:butt;stroke-linejoin:miter;stroke:rgb(0%,0%,0%);stroke-opacity:1;stroke-miterlimit:10;" d="M 133.816406 128.519531 L 129.5625 115.71875 "/>
<path style="fill:none;stroke-width:1.2;stroke-linecap:butt;stroke-linejoin:miter;stroke:rgb(0%,0%,100%);stroke-opacity:1;stroke-miterlimit:10;" d="M 138.070312 141.320312 L 130.214844 152.285156 "/>
<path style="fill:none;stroke-width:1.2;stroke-linecap:butt;stroke-linejoin:miter;stroke:rgb(0%,0%,0%);stroke-opacity:1;stroke-miterlimit:10;" d="M 130.214844 152.285156 L 122.359375 163.25 "/>
<path style=" stroke:none;fill-rule:nonzero;fill:rgb(100%,100%,100%);fill-opacity:1;" d="M 134.070312 134.820312 L 142.070312 134.820312 L 142.070312 147.820312 L 134.070312 147.820312 Z M 134.070312 134.820312 "/>
<g style="fill:rgb(0%,0%,100%);fill-opacity:1;">
  <use xlink:href="#glyph0-2" x="134.070312" y="144.72168"/>
</g>
<path style="fill:none;stroke-width:1.2;stroke-linecap:butt;stroke-linejoin:miter;stroke:rgb(0%,0%,0%);stroke-opacity:1;stroke-miterlimit:10;" d="M 129.5625 115.71875 L 140.421875 107.71875 "/>
<path style="fill:none;stroke-width:1.2;stroke-linecap:butt;stroke-linejoin:miter;stroke:rgb(0%,0%,100%);stroke-opacity:1;stroke-miterlimit:10;" d="M 140.421875 107.71875 L 151.28125 99.714844 "/>
<path style="fill:none;stroke-width:1.2;stroke-linecap:butt;stroke-linejoin:miter;stroke:rgb(0%,0%,0%);stroke-opacity:1;stroke-miterlimit:10;" d="M 135.5 119.230469 L 144.1875 112.828125 "/>
<path style="fill:none;stroke-width:1.2;stroke-linecap:butt;stroke-linejoin:miter;stroke:rgb(0%,0%,100%);stroke-opacity:1;stroke-miterlimit:10;" d="M 144.1875 112.828125 L 152.875 106.425781 "/>
<path style="fill:none;stroke-width:1.2;stroke-linecap:butt;stroke-linejoin:miter;stroke:rgb(0%,0%,100%);stroke-opacity:1;stroke-miterlimit:10;" d="M 151.28125 99.714844 L 162.246094 107.570312 "/>
<path style="fill:none;stroke-width:1.2;stroke-linecap:butt;stroke-linejoin:miter;stroke:rgb(0%,0%,0%);stroke-opacity:1;stroke-miterlimit:10;" d="M 162.246094 107.570312 L 173.210938 115.425781 "/>
<path style=" stroke:none;fill-rule:nonzero;fill:rgb(100%,100%,100%);fill-opacity:1;" d="M 147.28125 93.214844 L 155.28125 93.214844 L 155.28125 106.214844 L 147.28125 106.214844 Z M 147.28125 93.214844 "/>
<g style="fill:rgb(0%,0%,100%);fill-opacity:1;">
  <use xlink:href="#glyph0-2" x="147.28125" y="103.116211"/>
</g>
<path style="fill:none;stroke-width:1.2;stroke-linecap:butt;stroke-linejoin:miter;stroke:rgb(0%,0%,0%);stroke-opacity:1;stroke-miterlimit:10;" d="M 173.210938 115.425781 L 198.8125 106.917969 "/>
<path style="fill:none;stroke-width:1.2;stroke-linecap:butt;stroke-linejoin:miter;stroke:rgb(0%,0%,0%);stroke-opacity:1;stroke-miterlimit:10;" d="M 198.8125 106.917969 L 208.894531 115.878906 "/>
<path style="fill:none;stroke-width:1.2;stroke-linecap:butt;stroke-linejoin:miter;stroke:rgb(0%,0%,100%);stroke-opacity:1;stroke-miterlimit:10;" d="M 208.894531 115.878906 L 218.980469 124.835938 "/>
<path style="fill:none;stroke-width:1.2;stroke-linecap:butt;stroke-linejoin:miter;stroke:rgb(0%,0%,0%);stroke-opacity:1;stroke-miterlimit:10;" d="M 205.042969 103.964844 L 213.113281 111.132812 "/>
<path style="fill:none;stroke-width:1.2;stroke-linecap:butt;stroke-linejoin:miter;stroke:rgb(0%,0%,100%);stroke-opacity:1;stroke-miterlimit:10;" d="M 213.113281 111.132812 L 221.179688 118.296875 "/>
<path style="fill:none;stroke-width:1.2;stroke-linecap:butt;stroke-linejoin:miter;stroke:rgb(0%,0%,0%);stroke-opacity:1;stroke-miterlimit:10;" d="M 204.242188 80.492188 L 198.8125 106.917969 "/>
<path style="fill:none;stroke-width:1.2;stroke-linecap:butt;stroke-linejoin:miter;stroke:rgb(0%,0%,100%);stroke-opacity:1;stroke-miterlimit:10;" d="M 218.980469 124.835938 L 231.78125 120.582031 "/>
<path style="fill:none;stroke-width:1.2;stroke-linecap:butt;stroke-linejoin:miter;stroke:rgb(0%,0%,0%);stroke-opacity:1;stroke-miterlimit:10;" d="M 231.78125 120.582031 L 244.582031 116.328125 "/>
<path style=" stroke:none;fill-rule:nonzero;fill:rgb(100%,100%,100%);fill-opacity:1;" d="M 214.980469 118.335938 L 222.980469 118.335938 L 222.980469 131.335938 L 214.980469 131.335938 Z M 214.980469 118.335938 "/>
<g style="fill:rgb(0%,0%,100%);fill-opacity:1;">
  <use xlink:href="#glyph0-2" x="214.980469" y="128.237305"/>
</g>
<path style="fill:none;stroke-width:1.2;stroke-linecap:butt;stroke-linejoin:miter;stroke:rgb(0%,0%,0%);stroke-opacity:1;stroke-miterlimit:10;" d="M 244.582031 116.328125 L 247.296875 103.113281 "/>
<path style="fill:none;stroke-width:1.2;stroke-linecap:butt;stroke-linejoin:miter;stroke:rgb(0%,0%,100%);stroke-opacity:1;stroke-miterlimit:10;" d="M 247.296875 103.113281 L 250.011719 89.902344 "/>
<path style="fill:none;stroke-width:1.2;stroke-linecap:butt;stroke-linejoin:miter;stroke:rgb(0%,0%,0%);stroke-opacity:1;stroke-miterlimit:10;" d="M 238.90625 112.40625 L 241.078125 101.835938 "/>
<path style="fill:none;stroke-width:1.2;stroke-linecap:butt;stroke-linejoin:miter;stroke:rgb(0%,0%,100%);stroke-opacity:1;stroke-miterlimit:10;" d="M 241.078125 101.835938 L 243.253906 91.265625 "/>
<path style="fill:none;stroke-width:1.2;stroke-linecap:butt;stroke-linejoin:miter;stroke:rgb(0%,0%,0%);stroke-opacity:1;stroke-miterlimit:10;" d="M 244.582031 116.328125 L 254.664062 125.285156 "/>
<path style="fill:none;stroke-width:1.2;stroke-linecap:butt;stroke-linejoin:miter;stroke:rgb(0%,0%,100%);stroke-opacity:1;stroke-miterlimit:10;" d="M 254.664062 125.285156 L 264.75 134.246094 "/>
<path style="fill:none;stroke-width:1.2;stroke-linecap:butt;stroke-linejoin:miter;stroke:rgb(0%,0%,100%);stroke-opacity:1;stroke-miterlimit:10;" d="M 250.011719 89.902344 L 239.929688 80.945312 "/>
<path style="fill:none;stroke-width:1.2;stroke-linecap:butt;stroke-linejoin:miter;stroke:rgb(0%,0%,0%);stroke-opacity:1;stroke-miterlimit:10;" d="M 239.929688 80.945312 L 229.84375 71.984375 "/>
<path style=" stroke:none;fill-rule:nonzero;fill:rgb(100%,100%,100%);fill-opacity:1;" d="M 246.011719 83.402344 L 254.011719 83.402344 L 254.011719 96.402344 L 246.011719 96.402344 Z M 246.011719 83.402344 "/>
<g style="fill:rgb(0%,0%,100%);fill-opacity:1;">
  <use xlink:href="#glyph0-2" x="246.011719" y="93.303711"/>
</g>
<path style="fill:none;stroke-width:1.2;stroke-linecap:butt;stroke-linejoin:miter;stroke:rgb(0%,0%,0%);stroke-opacity:1;stroke-miterlimit:10;" d="M 229.84375 71.984375 L 204.242188 80.492188 "/>
<path style="fill:none;stroke-width:1.2;stroke-linecap:butt;stroke-linejoin:miter;stroke:rgb(0%,0%,0%);stroke-opacity:1;stroke-miterlimit:10;" d="M 229.285156 78.859375 L 208.804688 85.667969 "/>
<path style=" stroke:none;fill-rule:nonzero;fill:rgb(100%,100%,100%);fill-opacity:1;" d="M 253.75 125.746094 L 275.75 125.746094 L 275.75 142.746094 L 253.75 142.746094 Z M 253.75 125.746094 "/>
<g style="fill:rgb(0%,0%,100%);fill-opacity:1;">
  <use xlink:href="#glyph0-2" x="253.75" y="135.647461"/>
  <use xlink:href="#glyph0-3" x="261.733398" y="135.647461"/>
</g>
<g style="fill:rgb(0%,0%,100%);fill-opacity:1;">
  <use xlink:href="#glyph1-1" x="269.757812" y="140.530273"/>
</g>
<path style="fill:none;stroke-width:1.2;stroke-linecap:butt;stroke-linejoin:miter;stroke:rgb(0%,0%,0%);stroke-opacity:1;stroke-miterlimit:10;" d="M 122.359375 163.25 L 95.511719 160.609375 "/>
<path style="fill:none;stroke-width:1.2;stroke-linecap:butt;stroke-linejoin:miter;stroke:rgb(0%,0%,0%);stroke-opacity:1;stroke-miterlimit:10;" d="M 95.511719 160.609375 L 84.375 136.039062 "/>
<path style="fill:none;stroke-width:1.2;stroke-linecap:butt;stroke-linejoin:miter;stroke:rgb(0%,0%,0%);stroke-opacity:1;stroke-miterlimit:10;" d="M 88.617188 160.773438 L 79.707031 141.117188 "/>
<path style="fill:none;stroke-width:1.2;stroke-linecap:butt;stroke-linejoin:miter;stroke:rgb(0%,0%,0%);stroke-opacity:1;stroke-miterlimit:10;" d="M 79.800781 182.542969 L 95.511719 160.609375 "/>
<path style="fill:none;stroke-width:1.2;stroke-linecap:butt;stroke-linejoin:miter;stroke:rgb(0%,0%,0%);stroke-opacity:1;stroke-miterlimit:10;" d="M 84.375 136.039062 L 57.523438 133.398438 "/>
<path style="fill:none;stroke-width:1.2;stroke-linecap:butt;stroke-linejoin:miter;stroke:rgb(0%,0%,0%);stroke-opacity:1;stroke-miterlimit:10;" d="M 57.523438 133.398438 L 41.8125 155.332031 "/>
<path style="fill:none;stroke-width:1.2;stroke-linecap:butt;stroke-linejoin:miter;stroke:rgb(0%,0%,0%);stroke-opacity:1;stroke-miterlimit:10;" d="M 61.113281 139.289062 L 48.546875 156.832031 "/>
<path style="fill:none;stroke-width:1.2;stroke-linecap:butt;stroke-linejoin:miter;stroke:rgb(0%,0%,0%);stroke-opacity:1;stroke-miterlimit:10;" d="M 57.523438 133.398438 L 46.386719 108.828125 "/>
<path style="fill:none;stroke-width:1.2;stroke-linecap:butt;stroke-linejoin:miter;stroke:rgb(0%,0%,0%);stroke-opacity:1;stroke-miterlimit:10;" d="M 41.8125 155.332031 L 52.953125 179.902344 "/>
<path style="fill:none;stroke-width:1.2;stroke-linecap:butt;stroke-linejoin:miter;stroke:rgb(0%,0%,0%);stroke-opacity:1;stroke-miterlimit:10;" d="M 52.953125 179.902344 L 79.800781 182.542969 "/>
<path style="fill:none;stroke-width:1.2;stroke-linecap:butt;stroke-linejoin:miter;stroke:rgb(0%,0%,0%);stroke-opacity:1;stroke-miterlimit:10;" d="M 56.257812 173.847656 L 77.738281 175.960938 "/>
<path style="fill:none;stroke-width:1.2;stroke-linecap:butt;stroke-linejoin:miter;stroke:rgb(0%,0%,0%);stroke-opacity:1;stroke-miterlimit:10;" d="M 46.386719 108.828125 L 40.820312 96.542969 "/>
<path style="fill:none;stroke-width:1.2;stroke-linecap:butt;stroke-linejoin:miter;stroke:rgb(0%,0%,100%);stroke-opacity:1;stroke-miterlimit:10;" d="M 40.820312 96.542969 L 35.25 84.257812 "/>
<path style="fill:none;stroke-width:1.2;stroke-linecap:butt;stroke-linejoin:miter;stroke:rgb(0%,0%,0%);stroke-opacity:1;stroke-miterlimit:10;" d="M 51.054688 103.75 L 46.601562 93.921875 "/>
<path style="fill:none;stroke-width:1.2;stroke-linecap:butt;stroke-linejoin:miter;stroke:rgb(0%,0%,100%);stroke-opacity:1;stroke-miterlimit:10;" d="M 46.601562 93.921875 L 42.144531 84.09375 "/>
<path style="fill:none;stroke-width:1.2;stroke-linecap:butt;stroke-linejoin:miter;stroke:rgb(0%,0%,0%);stroke-opacity:1;stroke-miterlimit:10;" d="M 39.492188 108.992188 L 35.039062 99.164062 "/>
<path style="fill:none;stroke-width:1.2;stroke-linecap:butt;stroke-linejoin:miter;stroke:rgb(0%,0%,100%);stroke-opacity:1;stroke-miterlimit:10;" d="M 35.039062 99.164062 L 30.582031 89.335938 "/>
<path style=" stroke:none;fill-rule:nonzero;fill:rgb(100%,100%,100%);fill-opacity:1;" d="M 27.25 77.757812 L 35.25 77.757812 L 35.25 90.757812 L 27.25 90.757812 Z M 27.25 77.757812 "/>
<g style="fill:rgb(0%,0%,100%);fill-opacity:1;">
  <use xlink:href="#glyph0-2" x="27.25" y="87.65918"/>
</g>
</g>
</svg>

<svg xmlns="http://www.w3.org/2000/svg" xmlns:xlink="http://www.w3.org/1999/xlink" width="300pt" height="300pt" viewBox="0 0 300 300"><defs><symbol overflow="visible"><path d="M.547 1.938V-7.75h5.5v9.688zm.625-.61h4.266v-8.47H1.171zm0 0"/></symbol><symbol overflow="visible" id="a"><path d="M1.078-8.016h4.61v.907H2.171v2.36h3.172v.922H2.172V0H1.078zm0 0"/></symbol><symbol overflow="visible" id="b"><path d="M1.078-8.016h1.47l3.546 6.704v-6.704h1.062V0H5.688L2.124-6.703V0H1.078zm0 0"/></symbol><symbol overflow="visible" id="c"><path d="M1.078-8.016h1.094v3.282H6.11v-3.282h1.077V0H6.11v-3.813H2.17V0H1.078zm0 0"/></symbol><symbol overflow="visible"><path d="M.453 1.594v-7.938h4.5v7.938zm.5-.5h3.5v-6.938h-3.5zm0 0"/></symbol><symbol overflow="visible" id="d"><path d="M1.734-.75h3.094V0H.656v-.75c.344-.344.8-.805 1.375-1.39.583-.594.954-.973 1.11-1.14.282-.322.473-.595.58-.814.112-.226.17-.445.17-.656 0-.352-.12-.64-.36-.86-.24-.218-.557-.327-.952-.327-.28 0-.578.054-.89.156-.305.093-.633.24-.985.436v-.906c.352-.133.688-.238 1-.313.313-.082.598-.125.86-.125.675 0 1.218.172 1.624.516.407.344.61.797.61 1.36 0 .273-.055.53-.156.78-.105.243-.288.524-.546.845-.074.085-.31.328-.703.734-.398.406-.95.976-1.656 1.703zm0 0"/></symbol></defs><g><path fill="#fff" d="M0 0h300v300H0z"/><path d="M229.06 228.016l-8.005-10.86" stroke-width="1.2" stroke="#3cc" stroke-miterlimit="10" fill="none"/><path d="M221.055 217.156l-8-10.86" stroke-width="1.2" stroke="#000" stroke-miterlimit="10" fill="none"/><path d="M226.06 221.516h7v13h-7zm0 0" fill="#fff"/><use xlink:href="#a" x="226.059" y="231.417" fill="#3cc"/><path d="M213.055 206.297l-26.81 3M209.668 200.29l-21.45 2.398M223.863 181.578l-10.808 24.72M186.246 209.297l-16.004-21.72M170.242 187.578l10.81-24.72M177.137 187.648l8.648-19.777M181.05 162.86l26.81-3M181.05 162.86l-16.003-21.72M207.86 159.86l16.003 21.718M204.348 165.797l12.804 17.375M165.047 141.14l-13.488.09" stroke-width="1.2" stroke="#000" stroke-miterlimit="10" fill="none"/><path d="M151.56 141.23l-13.49.09" stroke-width="1.2" stroke="#00f" stroke-miterlimit="10" fill="none"/><path d="M173.21 115.426l-8.163 25.715M166.344 116.078l-6.53 20.57" stroke-width="1.2" stroke="#000" stroke-miterlimit="10" fill="none"/><path d="M138.07 141.32l-4.254-12.8" stroke-width="1.2" stroke="#00f" stroke-miterlimit="10" fill="none"/><path d="M133.816 128.52l-4.254-12.8" stroke-width="1.2" stroke="#000" stroke-miterlimit="10" fill="none"/><path d="M138.07 141.32l-7.855 10.965" stroke-width="1.2" stroke="#00f" stroke-miterlimit="10" fill="none"/><path d="M130.215 152.285l-7.856 10.965" stroke-width="1.2" stroke="#000" stroke-miterlimit="10" fill="none"/><path d="M134.07 134.82h8v13h-8zm0 0" fill="#fff"/><use xlink:href="#b" x="134.07" y="144.722" fill="#00f"/><path d="M129.563 115.72l10.86-8" stroke-width="1.2" stroke="#000" stroke-miterlimit="10" fill="none"/><path d="M140.422 107.72l10.86-8.005" stroke-width="1.2" stroke="#00f" stroke-miterlimit="10" fill="none"/><path d="M135.5 119.23l8.688-6.402" stroke-width="1.2" stroke="#000" stroke-miterlimit="10" fill="none"/><path d="M144.188 112.828l8.687-6.402M151.28 99.715l10.966 7.855" stroke-width="1.2" stroke="#00f" stroke-miterlimit="10" fill="none"/><path d="M162.246 107.57l10.965 7.856" stroke-width="1.2" stroke="#000" stroke-miterlimit="10" fill="none"/><path d="M147.28 93.215h8v13h-8zm0 0" fill="#fff"/><use xlink:href="#b" x="147.281" y="103.116" fill="#00f"/><path d="M173.21 115.426l25.602-8.508M198.813 106.918l10.082 8.96" stroke-width="1.2" stroke="#000" stroke-miterlimit="10" fill="none"/><path d="M208.895 115.88l10.085 8.956" stroke-width="1.2" stroke="#00f" stroke-miterlimit="10" fill="none"/><path d="M205.043 103.965l8.07 7.168" stroke-width="1.2" stroke="#000" stroke-miterlimit="10" fill="none"/><path d="M213.113 111.133l8.067 7.164" stroke-width="1.2" stroke="#00f" stroke-miterlimit="10" fill="none"/><path d="M204.242 80.492l-5.43 26.426" stroke-width="1.2" stroke="#000" stroke-miterlimit="10" fill="none"/><path d="M218.98 124.836l12.8-4.254" stroke-width="1.2" stroke="#00f" stroke-miterlimit="10" fill="none"/><path d="M231.78 120.582l12.802-4.254" stroke-width="1.2" stroke="#000" stroke-miterlimit="10" fill="none"/><path d="M214.98 118.336h8v13h-8zm0 0" fill="#fff"/><use xlink:href="#b" x="214.98" y="128.237" fill="#00f"/><path d="M244.582 116.328l2.715-13.215" stroke-width="1.2" stroke="#000" stroke-miterlimit="10" fill="none"/><path d="M247.297 103.113l2.715-13.21" stroke-width="1.2" stroke="#00f" stroke-miterlimit="10" fill="none"/><path d="M238.906 112.406l2.172-10.57" stroke-width="1.2" stroke="#000" stroke-miterlimit="10" fill="none"/><path d="M241.078 101.836l2.176-10.57" stroke-width="1.2" stroke="#00f" stroke-miterlimit="10" fill="none"/><path d="M244.582 116.328l10.082 8.957" stroke-width="1.2" stroke="#000" stroke-miterlimit="10" fill="none"/><path d="M254.664 125.285l10.086 8.96M250.012 89.902l-10.082-8.957" stroke-width="1.2" stroke="#00f" stroke-miterlimit="10" fill="none"/><path d="M239.93 80.945l-10.086-8.96" stroke-width="1.2" stroke="#000" stroke-miterlimit="10" fill="none"/><path d="M246.012 83.402h8v13h-8zm0 0" fill="#fff"/><use xlink:href="#b" x="246.012" y="93.304" fill="#00f"/><path d="M229.844 71.984l-25.602 8.508M229.285 78.86l-20.48 6.808" stroke-width="1.2" stroke="#000" stroke-miterlimit="10" fill="none"/><path d="M253.75 125.746h22v17h-22zm0 0" fill="#fff"/><g fill="#00f"><use xlink:href="#b" x="253.75" y="135.647"/><use xlink:href="#c" x="261.733" y="135.647"/></g><use xlink:href="#d" x="269.758" y="140.53" fill="#00f"/><path d="M122.36 163.25l-26.848-2.64M95.512 160.61l-11.137-24.57M88.617 160.773l-8.91-19.656M79.8 182.543l15.712-21.934M84.375 136.04l-26.852-2.642M57.523 133.398l-15.71 21.934M61.113 139.29L48.547 156.83M57.523 133.398l-11.136-24.57M41.813 155.332l11.14 24.57M52.953 179.902l26.848 2.64M56.258 173.848l21.48 2.113M46.387 108.828L40.82 96.543" stroke-width="1.2" stroke="#000" stroke-miterlimit="10" fill="none"/><path d="M40.82 96.543l-5.57-12.285" stroke-width="1.2" stroke="#00f" stroke-miterlimit="10" fill="none"/><path d="M51.055 103.75l-4.453-9.828" stroke-width="1.2" stroke="#000" stroke-miterlimit="10" fill="none"/><path d="M46.602 93.922l-4.457-9.828" stroke-width="1.2" stroke="#00f" stroke-miterlimit="10" fill="none"/><path d="M39.492 108.992l-4.453-9.828" stroke-width="1.2" stroke="#000" stroke-miterlimit="10" fill="none"/><path d="M35.04 99.164l-4.458-9.828" stroke-width="1.2" stroke="#00f" stroke-miterlimit="10" fill="none"/><path d="M27.25 77.758h8v13h-8zm0 0" fill="#fff"/><use xlink:href="#b" x="27.25" y="87.659" fill="#00f"/></g></svg>
